X: 3890
T: Black Velvet
R: waltz
M: 3/4
K: Dmajor
(3GFE|D2- D>E D>F|A2 F2 D2|G2- G>F G>B|d2 c2 B2|
D2- D>E D>F|A2 G2 F2|E2- E>^D E>F|E4 (3GFE|
D2 D>E (3DEF|A2 (3FGF E>D|G2 G>F G>B|d2 (3cdc B2|
A2- A>^G A>c|e2 B2 c2|d2- d>c d>e|d4||
(3efg|a2- a>^g a>b|a2 f2 e2|d2 d>c d>e|d2 f2 g2|
a2- a>^g a>b|a2 (3gag f2|a2 a>^g (3aba|e2 f2 g2|
a2 a>^g a>b|a2- a>f e2|d2 d>c d>e|d2 (3cdc (3BcB|
A2 A>^G A>c|e2 B2 c2|d2 d>c d>e|d4||

